images/svg/client 6.svg

<svg width="170" height="90" viewBox="0 0 170 90" fill="none" xmlns="http://www.w3.org/2000/svg">
<rect x="0.5" y="0.5" width="169" height="89" rx="3.5" stroke="#AFB1B8"/>
<path d="M85.7405 43.3533C85.3226 42.7432 85.1226 42.022 85.1701 41.2962V38.3135C85.1701 37.3992 85.3592 36.7044 85.7373 36.2291C86.1155 35.7537 86.7651 35.517 87.686 35.5191C88.5513 35.5191 89.1656 35.7213 89.5288 36.1259C89.925 36.6421 90.1178 37.2733 90.0736 37.91V38.6109H88.5256V37.9009C88.5311 37.6685 88.5161 37.4361 88.4808 37.2061C88.4585 37.0488 88.3806 36.9033 88.2596 36.7934C88.1007 36.675 87.9004 36.6175 87.6988 36.6326C87.4867 36.6176 87.2764 36.6782 87.1091 36.8025C86.9742 36.9243 86.8844 37.0838 86.8527 37.2576C86.8083 37.5011 86.7879 37.7479 86.7918 37.995V41.6147C86.7674 41.964 86.8357 42.3134 86.9905 42.6312C87.0675 42.7387 87.1744 42.824 87.2994 42.8775C87.4244 42.9311 87.5626 42.9508 87.6988 42.9346C87.8971 42.9501 88.0939 42.8912 88.2468 42.7708C88.373 42.6523 88.4541 42.4976 88.4776 42.3308C88.5137 42.0907 88.5298 41.8482 88.5256 41.6056V40.8714H90.0736V41.5419C90.1171 42.2056 89.929 42.8644 89.5384 43.4171C89.1827 43.86 88.5769 44.0815 87.686 44.0815C86.795 44.0815 86.1219 43.8449 85.7405 43.3533Z" fill="#AFB1B8"/>
<path d="M92.1857 43.3837C91.7947 42.9194 91.5992 42.2428 91.5992 41.3477V38.2104C91.5992 37.3244 91.7947 36.6538 92.1857 36.1987C92.5767 35.7436 93.2305 35.517 94.1471 35.5191C95.0573 35.5191 95.7079 35.7456 96.0989 36.1987C96.4899 36.6538 96.6886 37.3244 96.6886 38.2104V41.3477C96.6886 42.2337 96.4899 42.9134 96.0925 43.3806C95.6951 43.8479 95.0477 44.0815 94.1471 44.0815C93.2466 44.0815 92.5799 43.8449 92.1857 43.3837ZM94.8682 42.6312C95.0083 42.3404 95.072 42.0219 95.0541 41.7027V37.8615C95.0721 37.5485 95.0094 37.2361 94.8714 36.9512C94.7929 36.8414 94.6833 36.7547 94.5553 36.7011C94.4272 36.6474 94.2858 36.629 94.1471 36.6478C94.0081 36.6294 93.8664 36.6481 93.7379 36.7017C93.6094 36.7553 93.4992 36.8417 93.4196 36.9512C93.2787 37.2353 93.2148 37.5481 93.2337 37.8615V41.7209C93.2143 42.0402 93.2781 42.3591 93.4196 42.6494C93.5099 42.7473 93.6212 42.8257 93.7461 42.8795C93.8711 42.9332 94.0067 42.961 94.1439 42.961C94.2812 42.961 94.4168 42.9332 94.5417 42.8795C94.6666 42.8257 94.778 42.7473 94.8682 42.6494V42.6312Z" fill="#AFB1B8"/>
<path d="M98.5505 35.6106H100.217L101.47 41.3992L102.752 35.6106H104.374L104.537 43.9658H103.339L103.211 38.159L101.973 43.9658H101.012L99.7299 38.1378L99.6114 43.9658H98.3999L98.5505 35.6106Z" fill="#AFB1B8"/>
<path d="M106.406 35.6106H109.002C110.497 35.6106 111.245 36.4014 111.245 37.9831C111.245 39.498 110.458 40.2544 108.883 40.2524H107.999V43.9658H106.396L106.406 35.6106ZM108.624 39.1814C108.782 39.2005 108.943 39.1867 109.095 39.1411C109.247 39.0956 109.387 39.0193 109.505 38.9175C109.689 38.6353 109.77 38.3039 109.736 37.974C109.744 37.7191 109.718 37.4642 109.659 37.2155C109.636 37.1324 109.596 37.0545 109.541 36.9863C109.486 36.918 109.417 36.8608 109.338 36.8181C109.116 36.7171 108.87 36.6711 108.624 36.6846H108.002V39.1814H108.624Z" fill="#AFB1B8"/>
<path d="M113.556 35.6106H115.277L117.043 43.9658H115.549L115.2 42.0393H113.665L113.306 43.9658H111.79L113.556 35.6106ZM115.027 41.0715L114.428 37.5644L113.828 41.0715H115.027Z" fill="#AFB1B8"/>
<path d="M118.469 35.6106H119.591L121.738 40.3768V35.6106H123.068V43.9658H122.001L119.841 38.9903V43.9658H118.466L118.469 35.6106Z" fill="#AFB1B8"/>
<path d="M126.183 40.7801L124.398 35.6223H125.901L126.991 38.9354L128.013 35.6223H129.484L127.722 40.7801V43.9658H126.183V40.7801Z" fill="#AFB1B8"/>
<path d="M88.2148 47.6189V48.0558H86.9072V51.4509H86.3592V48.0558H85.0452V47.6189H88.2148Z" fill="#AFB1B8"/>
<path d="M92.3138 51.4512H91.8908C91.8478 51.4537 91.8054 51.4407 91.7722 51.4148C91.7402 51.3925 91.7157 51.362 91.7017 51.3268L91.3235 50.4166H89.5095L89.1313 51.3268C89.1206 51.3649 89.1008 51.4001 89.0736 51.43C89.0401 51.4554 88.9979 51.4683 88.955 51.4664H88.532L90.1345 47.6345H90.6921L92.3138 51.4512ZM89.6601 50.0283H91.1729L90.5319 48.4688C90.4846 48.3509 90.445 48.2303 90.4133 48.1078C90.3909 48.1806 90.3716 48.2504 90.3524 48.3111L90.2947 48.4719L89.6601 50.0283Z" fill="#AFB1B8"/>
<path d="M95.0765 51.0748C95.1769 51.0798 95.2774 51.0798 95.3778 51.0748C95.4644 51.0664 95.5502 51.0512 95.6342 51.0293C95.7127 51.0111 95.7898 50.9878 95.8649 50.9595C95.9354 50.9322 96.0059 50.8988 96.0797 50.8655V50.0037H95.4387C95.4228 50.0046 95.407 50.0023 95.3921 49.9971C95.3772 49.9919 95.3636 49.9838 95.3521 49.9734C95.3416 49.9648 95.3333 49.954 95.3277 49.9419C95.3222 49.9299 95.3196 49.9167 95.3201 49.9036V49.6093H96.5636V51.0779C96.4621 51.1466 96.3549 51.2075 96.2431 51.2599C96.1288 51.3133 96.0098 51.357 95.8874 51.3904C95.7563 51.4269 95.6223 51.4533 95.4867 51.4693C95.3314 51.4856 95.1752 51.4937 95.0188 51.4936C94.7424 51.4958 94.4682 51.4473 94.2112 51.351C93.9712 51.2596 93.7532 51.1234 93.5702 50.9504C93.3918 50.7757 93.2513 50.5695 93.1568 50.3436C93.0557 50.0896 93.0057 49.8199 93.0093 49.5486C93.006 49.2755 93.0548 49.0041 93.1536 48.7475C93.2457 48.5204 93.3865 48.3138 93.567 48.1406C93.7499 47.9682 93.968 47.833 94.208 47.7431C94.4824 47.6454 94.7737 47.597 95.0669 47.6005C95.2161 47.6003 95.3651 47.6115 95.5124 47.6339C95.6426 47.654 95.7704 47.6865 95.8938 47.731C96.0059 47.7709 96.1133 47.8217 96.2143 47.8827C96.3125 47.9426 96.4057 48.0095 96.4931 48.083L96.3393 48.3197C96.3272 48.3413 96.3093 48.3594 96.2873 48.3722C96.2653 48.3851 96.2401 48.392 96.2143 48.3925C96.1788 48.3914 96.1444 48.3809 96.1149 48.3621C96.0668 48.3379 96.0156 48.3075 95.9579 48.2711C95.8897 48.2307 95.8179 48.1961 95.7431 48.1679C95.6476 48.1317 95.549 48.1032 95.4483 48.083C95.314 48.0596 95.1777 48.0484 95.0413 48.0496C94.8298 48.0474 94.6199 48.0834 94.4227 48.1558C94.2444 48.2235 94.0836 48.3271 93.9516 48.4592C93.8188 48.597 93.7173 48.7592 93.6535 48.9356C93.5103 49.3507 93.5103 49.7981 93.6535 50.2131C93.7237 50.3933 93.8328 50.5576 93.974 50.6955C94.1055 50.827 94.265 50.9304 94.4419 50.999C94.6457 51.0652 94.8617 51.091 95.0765 51.0748Z" fill="#AFB1B8"/>
<path d="M100.185 51.014H101.935V51.4509H99.6499V47.6189H100.198L100.185 51.014Z" fill="#AFB1B8"/>
<path d="M103.755 51.4509H103.207V47.6189H103.755V51.4509Z" fill="#AFB1B8"/>
<path d="M105.794 47.6371C105.826 47.6547 105.855 47.6785 105.877 47.7069L108.22 50.5955C108.217 50.5501 108.217 50.5045 108.22 50.459C108.22 50.4165 108.22 50.374 108.22 50.3346V47.6038H108.697V51.4512H108.422C108.381 51.4543 108.34 51.447 108.303 51.43C108.27 51.4109 108.241 51.3862 108.217 51.3571L105.877 48.4716C105.877 48.5171 105.877 48.5595 105.877 48.602C105.877 48.6445 105.877 48.684 105.877 48.7204V51.4512H105.419V47.6189H105.704C105.735 47.619 105.766 47.6252 105.794 47.6371Z" fill="#AFB1B8"/>
<path d="M112.732 47.6189V48.0406H110.79V49.3059H112.364V49.7124H110.79V51.0202H112.732V51.4419H110.226V47.6189H112.732Z" fill="#AFB1B8"/>
<path d="M55.3035 23.9539L79.6385 30.4953V53.4173L55.3035 46.879V23.9539ZM53.7427 22V47.9925L81.1961 55.3743V29.3848L53.7427 22Z" fill="#AFB1B8"/>
<path d="M68.4565 67.4402L41 60.0522V34.0625L68.4565 41.4474V67.4402Z" fill="#AFB1B8"/>
<path d="M54.1978 23.6596L78.2155 30.1189L68.0014 39.7912L43.9806 33.3288L54.1978 23.6596ZM53.7427 22L41 34.0631L68.4565 41.4478L81.196 29.3847L53.7427 22Z" fill="#AFB1B8"/>
<path d="M70.0013 65.978L81.196 55.3774L70.0013 52.3647V65.978Z" fill="#AFB1B8"/>
</svg>

<svg width="170" height="90" fill="none" xmlns="http://www.w3.org/2000/svg"><rect x=".5" y=".5" width="169" height="89" rx="3.5" stroke="#AFB1B8"/><path d="M85.74 43.353a3.258 3.258 0 01-.57-2.057v-2.983c0-.914.19-1.609.567-2.084.379-.475 1.028-.712 1.949-.71.865 0 1.48.202 1.843.607.396.516.589 1.147.545 1.784v.7h-1.548v-.71a3.961 3.961 0 00-.045-.694.689.689 0 00-.221-.413.836.836 0 00-.561-.16.886.886 0 00-.59.17.81.81 0 00-.256.455c-.045.243-.065.49-.061.737v3.62a2 2 0 00.198 1.016.735.735 0 00.31.246.78.78 0 00.399.058.788.788 0 00.548-.164.747.747 0 00.23-.44c.037-.24.053-.483.049-.725v-.735h1.548v.67a2.914 2.914 0 01-.536 1.876c-.355.443-.961.664-1.852.664-.891 0-1.564-.236-1.946-.728zM92.186 43.384c-.391-.465-.587-1.141-.587-2.036V38.21c0-.886.196-1.556.587-2.011.39-.455 1.044-.682 1.961-.68.91 0 1.56.227 1.952.68.39.455.59 1.125.59 2.011v3.138c0 .886-.2 1.565-.596 2.033-.398.467-1.045.7-1.946.7-.9 0-1.567-.236-1.961-.697zm2.682-.753c.14-.29.204-.61.186-.928V37.86a1.843 1.843 0 00-.183-.91.738.738 0 00-.316-.25.785.785 0 00-.408-.053.794.794 0 00-.41.054.749.749 0 00-.317.25c-.141.283-.205.596-.186.91v3.859c-.02.32.044.638.186.928a.96.96 0 00.326.23 1.009 1.009 0 00.796 0 .96.96 0 00.326-.23v-.018zM98.55 35.61h1.667l1.253 5.79 1.282-5.79h1.622l.163 8.356h-1.198l-.128-5.807-1.238 5.807h-.961l-1.282-5.828-.119 5.828H98.4l.15-8.355zM106.406 35.61h2.596c1.495 0 2.243.791 2.243 2.373 0 1.515-.787 2.271-2.362 2.27h-.884v3.713h-1.603l.01-8.355zm2.218 3.571c.158.02.319.006.471-.04.152-.045.292-.122.41-.224.184-.282.265-.613.231-.943a2.892 2.892 0 00-.077-.758.635.635 0 00-.118-.23.668.668 0 00-.203-.168 1.526 1.526 0 00-.714-.133h-.622v2.496h.622zM113.556 35.61h1.721l1.766 8.356h-1.494l-.349-1.927h-1.535l-.359 1.927h-1.516l1.766-8.355zm1.471 5.462l-.599-3.508-.6 3.508h1.199zM118.469 35.61h1.122l2.147 4.767V35.61h1.33v8.355h-1.067l-2.16-4.976v4.976h-1.375l.003-8.355zM126.183 40.78l-1.785-5.158h1.503l1.09 3.313 1.022-3.313h1.471l-1.762 5.158v3.186h-1.539V40.78zM88.215 47.619v.437h-1.308v3.395h-.548v-3.395h-1.314v-.437h3.17zM92.314 51.451h-.423a.176.176 0 01-.119-.036.196.196 0 01-.07-.088l-.379-.91H89.51l-.379.91a.257.257 0 01-.057.103.183.183 0 01-.119.036h-.423l1.603-3.831h.557l1.622 3.816zm-2.654-1.423h1.513l-.641-1.56a2.964 2.964 0 01-.119-.36l-.06.203-.058.16-.635 1.557zM95.076 51.075c.1.005.201.005.302 0 .086-.009.172-.024.256-.046a1.82 1.82 0 00.23-.07c.071-.027.142-.06.216-.094v-.861h-.641a.12.12 0 01-.087-.03.084.084 0 01-.032-.07v-.295h1.244v1.469a2.355 2.355 0 01-.677.312 2.653 2.653 0 01-.4.08 4.455 4.455 0 01-.468.024 2.252 2.252 0 01-.808-.143 1.935 1.935 0 01-.64-.4 1.849 1.849 0 01-.414-.607 2.074 2.074 0 01-.148-.795 2.155 2.155 0 01.145-.801c.092-.228.233-.434.413-.607.183-.173.401-.308.641-.398.274-.098.566-.146.859-.143.15 0 .298.011.445.034.13.02.258.053.382.097.112.04.22.09.32.152.099.06.192.127.28.2l-.155.237a.14.14 0 01-.052.052.15.15 0 01-.073.02.196.196 0 01-.1-.03 1.906 1.906 0 01-.156-.09 1.369 1.369 0 00-.215-.104 1.869 1.869 0 00-.295-.085 2.256 2.256 0 00-.407-.033 1.743 1.743 0 00-.618.106c-.179.068-.34.171-.471.303-.133.138-.235.3-.299.477a1.953 1.953 0 000 1.277c.07.18.18.345.321.483.132.131.291.234.468.303.204.066.42.092.635.076zM100.185 51.014h1.75v.437H99.65v-3.832h.548l-.013 3.395zM103.755 51.45h-.548V47.62h.548v3.832zM105.794 47.637a.27.27 0 01.083.07l2.343 2.889a1.036 1.036 0 010-.137v-2.855h.477v3.847h-.275a.242.242 0 01-.119-.021.318.318 0 01-.086-.073l-2.34-2.885v2.979h-.458V47.62h.285c.031 0 .062.006.09.018zM112.732 47.619v.422h-1.942v1.265h1.574v.406h-1.574v1.308h1.942v.422h-2.506v-3.823h2.506zM55.303 23.954l24.335 6.541v22.922L55.303 46.88V23.954zM53.743 22v25.992l27.453 7.382v-25.99L53.743 22z" fill="#AFB1B8"/><path d="M68.457 67.44L41 60.052v-25.99l27.457 7.385V67.44z" fill="#AFB1B8"/><path d="M54.198 23.66l24.018 6.459L68 39.79l-24.02-6.462 10.217-9.67zM53.743 22L41 34.063l27.457 7.385 12.739-12.063L53.743 22zM70.001 65.978l11.195-10.6-11.195-3.013v13.613z" fill="#AFB1B8"/></svg>
